X: 23595
T: Lilies In The Field, The
R: reel
M: 4/4
K: Dmajor
Addc A2AB|c2cd e2dc|Addc A2 Bd|cAGE EDD2|
Addc A2AB|cBcd eddc|Addc A2 Bd|cAGE EDDA||
d2fd Adfd|cdef g2fe|d2fd Adfd|eaag eddA|
d2fd Adfd|cdef g2fg|afge d2 cd|eaag edd2||

